src/images/customer-reviews/house.svg

<svg width="12" height="11" viewBox="0 0 12 11" fill="none" xmlns="http://www.w3.org/2000/svg">
<path d="M11.8497 5.28727C12.0672 5.06411 12.0462 4.72207 11.8028 4.5235L6.43981 0.146237C6.19638 -0.0523315 5.80611 -0.0481718 5.56781 0.155614L0.186634 4.75688C-0.0516656 4.96066 -0.0633615 5.30227 0.160739 5.51955L0.295652 5.65062C0.519479 5.86791 0.88127 5.89381 1.10322 5.70831L1.50538 5.37236V10.2907C1.50538 10.5924 1.7675 10.8367 2.09076 10.8367H4.18836C4.51162 10.8367 4.77374 10.5924 4.77374 10.2907V6.84984H7.44925V10.2907C7.4446 10.5922 7.6759 10.8365 7.99916 10.8365H10.2221C10.5453 10.8365 10.8075 10.5922 10.8075 10.2905V5.44161C10.8075 5.44161 10.9186 5.5324 11.0556 5.64474C11.1924 5.75687 11.4797 5.66697 11.6972 5.44358L11.8497 5.28727Z" fill="#D31342"/>
</svg>

<svg xmlns="http://www.w3.org/2000/svg" width="12" height="11" fill="none"><path fill="#D31342" d="M11.85 5.287a.51.51 0 0 0-.047-.763L6.44.146a.705.705 0 0 0-.872.01l-5.381 4.6a.506.506 0 0 0-.026.764l.135.13c.223.218.585.244.807.058l.402-.336v4.919c0 .301.263.546.586.546h2.097c.324 0 .586-.245.586-.546V6.85h2.675v3.44a.533.533 0 0 0 .55.546h2.223c.323 0 .585-.244.585-.546V5.442s.112.09.249.203c.136.112.424.022.641-.201l.153-.157Z"/></svg>
